Hatter-kde-dark/actions/24/draw-triangle4.svg

<svg xmlns="http://www.w3.org/2000/svg" viewBox="0 0 24 24">
  <defs id="defs3051">
    <style type="text/css" id="current-color-scheme">
      .ColorScheme-Text {
        color:#dedede;
      }
      </style>
  </defs>
 <path style="fill:currentColor;fill-opacity:1;stroke:none" 
     d="M 3 4 L 3.6445312 5.1425781 L 12 20 L 20.355469 5.1425781 L 21 4 L 19.699219 4 L 4.125 4 L 3 4 z M 4.78125 5.1425781 L 19.054688 5.1425781 L 12 17.6875 L 4.78125 5.1425781 z "
     class="ColorScheme-Text"
     />
</svg>

<?xml version="1.0" encoding="UTF-8"?>
<svg viewBox="0 0 24 24" xmlns="http://www.w3.org/2000/svg">
 <defs id="defs3051">
  <style id="current-color-scheme" type="text/css">.ColorScheme-Text {
        color:#dedede;
      }</style>
 </defs>
 <path class="ColorScheme-Text" d="m3 4 0.64453 1.1426 8.3555 14.857 8.3555-14.857 0.64453-1.1426h-1.3008-15.574-1.125zm1.7812 1.1426h14.273l-7.0547 12.545-7.2188-12.545z" fill="currentColor"/>
</svg>
